src/assets/subject_icons/social-studies.svg

<svg fill="none" height="60" viewBox="0 0 60 60" width="60" xmlns="http://www.w3.org/2000/svg"><path d="m30 60c16.5685 0 30-13.4315 30-30s-13.4315-30-30-30-30 13.4315-30 30 13.4315 30 30 30z" fill="#e3f2fd"/><path d="m18 13 26 25" stroke="#593c33" stroke-width="2"/><circle cx="31.5" cy="25.5" fill="#1855d1" r="11.5"/><g fill="#16d2aa"><path d="m25.4274 18.1957-.0425-.6309c-.0501-.7433-.864-1.1632-1.4401-.6909-2.4184 1.9831-3.4186 4.619-3.7029 6.4138-.0516.3258.2199.6014.5492.5814.1678-.0102.3308.0578.4417.1841l1.4721 1.6772c.2039.2323.5037.3573.8122.3385l1.1587-.0704c.4423-.0268.8142-.3416.9138-.7735l.2458-1.0662c.0854-.3704.3733-.6603.7431-.7482l1.4297-.3401c.5879-.1398.9184-.7651.7028-1.3297l-.4052-1.0607c-.0795-.2082-.2263-.3839-.4171-.4992l-1.9807-1.1965c-.2793-.1687-.4587-.4631-.4806-.7887z"/><path d="m29.0889 26.4285-3.2838-.9218c-.7702-.2162-1.4699.5146-1.2204 1.2746l.7748 2.3607.6634 2.8549c.0756.3251.3082.591.6204.709l2.6466 1.0009c.4497.17.9569-.0041 1.2073-.4145l1.0192-1.6703c.2727-.4469.1546-1.0284-.2708-1.3335l-.5165-.3705c-.1923-.1378-.3294-.3393-.3871-.5687l-.5536-2.2018c-.0874-.3478-.3543-.6221-.6995-.719z"/><path d="m36.2646 20.7516-.5327-4.4505c-.0855-.7148.5814-1.2539 1.2217-.9248 1.5695.8067 3.6827 2.3386 4.7927 4.6364 1.8476 3.8249 1.3849 6.7022.801 8.3674-.1593.4544-.6486.686-1.1161.5705l-1.5177-.3752c-.3935-.0973-.6893-.4224-.7491-.8233l-.3626-2.4326c-.0192-.129-.0635-.253-.1303-.365l-2.2728-3.8094c-.0717-.1203-.1174-.2544-.1341-.3935z"/></g><path d="m30 40h3v3h-3z" fill="#593c33"/><path d="m37.0505 43h-11.3691c-1.9406 0-2.5883 2.5785-2.6773 3.9322h16.9959c0-2.983-1.9664-3.8644-2.9495-3.9322z" fill="#593c33"/><path d="m41 35.8822c-2.6366 2.6366-6.2125 4.1178-9.9411 4.1178-3.7287 0-7.3046-1.4812-9.9412-4.1178-2.6365-2.6365-4.1177-6.2124-4.1177-9.9411 0-3.7286 1.4812-7.3045 4.1177-9.9411" stroke="#593c33" stroke-width="2"/></svg>

<svg width="60" height="60" viewBox="0 0 60 60" fill="none" xmlns="http://www.w3.org/2000/svg">
<path d="M30 60C46.5685 60 60 46.5685 60 30C60 13.4315 46.5685 0 30 0C13.4315 0 0 13.4315 0 30C0 46.5685 13.4315 60 30 60Z" fill="#E3F2FD"/>
<path d="M18 13L44 38" stroke="#593C33" stroke-width="2"/>
<circle cx="31.5" cy="25.5" r="11.5" fill="#1855D1"/>
<path d="M25.4274 18.1957L25.3849 17.5648C25.3348 16.8215 24.5209 16.4016 23.9448 16.8739C21.5264 18.857 20.5262 21.4929 20.2419 23.2877C20.1903 23.6135 20.4618 23.8891 20.7911 23.8691C20.9589 23.8589 21.1219 23.9269 21.2328 24.0532L22.7049 25.7304C22.9088 25.9627 23.2086 26.0877 23.5171 26.0689L24.6758 25.9985C25.1181 25.9717 25.49 25.6569 25.5896 25.225L25.8354 24.1588C25.9208 23.7884 26.2087 23.4985 26.5785 23.4106L28.0082 23.0705C28.5961 22.9307 28.9266 22.3054 28.711 21.7408L28.3058 20.6801C28.2263 20.4719 28.0795 20.2962 27.8887 20.1809L25.908 18.9844C25.6287 18.8157 25.4493 18.5213 25.4274 18.1957Z" fill="#16D2AA"/>
<path d="M29.0889 26.4285L25.8051 25.5067C25.0349 25.2905 24.3352 26.0213 24.5847 26.7813L25.3595 29.142L26.0229 31.9969C26.0985 32.322 26.3311 32.5879 26.6433 32.7059L29.2899 33.7068C29.7396 33.8768 30.2468 33.7027 30.4972 33.2923L31.5164 31.622C31.7891 31.1751 31.671 30.5936 31.2456 30.2885L30.7291 29.918C30.5368 29.7802 30.3997 29.5787 30.342 29.3493L29.7884 27.1475C29.701 26.7997 29.4341 26.5254 29.0889 26.4285Z" fill="#16D2AA"/>
<path d="M36.2646 20.7516L35.7319 16.3011C35.6464 15.5863 36.3133 15.0472 36.9536 15.3763C38.5231 16.183 40.6363 17.7149 41.7463 20.0127C43.5939 23.8376 43.1312 26.7149 42.5473 28.3801C42.388 28.8345 41.8987 29.0661 41.4312 28.9506L39.9135 28.5754C39.52 28.4781 39.2242 28.153 39.1644 27.7521L38.8018 25.3195C38.7826 25.1905 38.7383 25.0665 38.6715 24.9545L36.3987 21.1451C36.327 21.0248 36.2813 20.8907 36.2646 20.7516Z" fill="#16D2AA"/>
<rect x="30" y="40" width="3" height="3" fill="#593C33"/>
<path d="M37.0505 43H25.6814C23.7408 43 23.0931 45.5785 23.0041 46.9322H40C40 43.9492 38.0336 43.0678 37.0505 43Z" fill="#593C33"/>
<path d="M41 35.8822C38.3634 38.5188 34.7875 40 31.0589 40C27.3302 40 23.7543 38.5188 21.1177 35.8822C18.4812 33.2457 17 29.6698 17 25.9411C17 22.2125 18.4812 18.6366 21.1177 16" stroke="#593C33" stroke-width="2"/>
</svg>
